X:1
T:The Humours Of Tulla
R:reel
M:4/4
L:1/8
K:D
|:~d2Ad BdAd|~d2fd edBd|~d2Ad BdAd|1 (3Bcd ef gefe:|2 (3Bcd ef ~g2fg|]
|:af~f2 df~f2|af~f2 ge~e2|af~f2 dfeA|1 (3Bcd ef ~g2fg:|2 (3Bcd ef gefe|]